frontend/public/svg/emojis/crying-emoji.svg

<svg width="160" height="155" viewBox="0 0 160 155" fill="none" xmlns="http://www.w3.org/2000/svg">
<path d="M87.5607 82.4787C83.5046 79.6428 76.9891 80.7641 73.7598 84.6313C71.8856 86.817 70.4644 89.3534 69.579 92.0931C68.6935 94.8328 68.3614 97.7212 68.602 100.59C68.9629 105.455 73.3095 109.592 78.4125 110.298C83.8913 111.056 88.0469 108.791 89.8231 103.6C90.828 100.662 91.1868 97.5059 91.629 95.4237C91.3121 92.1158 91.4428 89.7688 90.7819 87.671C90.184 85.7628 89.1182 83.5635 87.5607 82.4787ZM79.6605 86.6811C82.7422 86.4407 84.651 88.764 85.0668 92.2242H75.408C76.4163 90.0486 76.591 86.9181 79.6632 86.6811H79.6605ZM80.7317 104.678C78.1166 105.025 75.3823 102.884 74.2988 99.6709C77.65 97.2812 81.2951 97.5973 85.3323 98.4986C84.6924 101.544 84.1019 104.23 80.7344 104.678H80.7317Z" fill="black"/>
<path d="M138.455 25.6255C137.02 24.4405 135.584 23.208 134.203 22.0162C131.203 19.4363 128.095 16.7617 124.851 14.4864C100.054 -2.97042 74.2889 -3.06522 48.2729 6.19138C24.7218 14.5677 9.59427 31.3203 3.31034 55.9753C-3.69813 83.5284 2.44362 107.831 21.573 128.227C22.0673 128.755 22.5752 129.276 23.083 129.784C23.6586 130.36 24.2477 130.929 24.8436 131.484C27.4429 133.902 30.2029 136.142 33.1048 138.188C40.4722 143.422 48.2323 147.255 54.9564 150.234C55.4078 150.437 55.8547 150.634 56.2971 150.823C58.0197 151.432 59.7978 151.869 61.6059 152.13C69.9078 153.6 84.3513 154.825 89.0304 154.128C92.7709 153.575 96.4799 152.826 100.142 151.886C102.634 151.25 105.056 150.528 107.408 149.719C113.699 147.599 119.704 144.709 125.285 141.113C127.293 139.81 129.235 138.407 131.102 136.908C143.703 126.791 152.425 112.632 156.799 94.6267C158.376 87.9893 159.16 81.1885 159.135 74.3665C159.169 58.2978 152.405 39.6153 138.455 25.6255ZM43.7022 136.011C39.7916 133.391 36.0941 130.465 32.6444 127.263C32.8001 126.883 32.9762 126.497 33.1658 126.111C34.8451 122.671 36.5154 119.227 38.1766 115.778C40.6482 110.618 40.9462 105.357 38.6642 100.082C37.5063 97.4072 36.1046 94.8272 34.7841 92.2201C32.1365 87.0197 32.8881 82.4422 37.1813 78.5486C40.4451 75.603 43.7834 72.7386 47.115 69.8811C48.1646 68.9805 49.3225 68.2154 51.0763 66.9152C50.5413 69.3327 50.1757 70.8427 49.8642 72.3663C48.4016 79.5576 48.6724 86.5456 52.8843 92.8634C57.4144 99.6687 58.1457 106.345 53.7781 113.692C50.3789 119.414 50.2366 125.719 53.1687 131.867C54.6184 134.857 55.487 138.094 55.7283 141.408C50.3585 139.596 46.1061 137.605 43.7022 136.011ZM108.756 141.151C108.568 138.182 107.36 135.368 105.336 133.188C100.156 127.432 99.8309 121.08 102.77 114.329C104.605 110.104 106.636 105.953 108.742 101.849C111.058 97.3461 112.094 92.7281 110.272 87.8594C109.238 85.2459 108.06 82.6915 106.745 80.2076C103.711 74.1877 105.052 68.6012 107.936 63.0757C114.511 66.6984 120.775 70.1383 127.012 73.5647C126.747 74.4179 126.646 74.8581 126.47 75.2644C122.217 85.1236 121.432 94.7324 127.716 104.253C128.826 105.939 128.752 108.831 128.346 111.004C127.644 114.195 126.623 117.308 125.298 120.295C123.615 124.204 122.862 128.45 123.098 132.7C118.582 135.945 113.782 138.775 108.756 141.154V141.151ZM148.809 95.8904C145.745 107.465 139.537 117.964 130.871 126.226C130.986 125.84 131.108 125.455 131.251 125.069C132.51 121.574 133.56 118.006 134.657 114.458C136.133 109.691 136.045 104.991 132.937 100.915C127.282 93.5 127.905 85.6248 130.837 77.5261C131.149 76.6661 132.199 76.0567 132.943 75.3728C134.007 74.3774 135.842 73.5173 135.991 72.4204C136.153 71.215 134.975 69.617 134 68.5336C133.228 67.6736 131.887 67.3148 130.783 66.7527C125.468 64.0441 120.139 61.3626 114.836 58.6202C113.729 57.9618 112.655 57.2475 111.62 56.4803C117.206 50.6975 122.481 45.3007 127.668 39.8158C128.772 38.6443 131.244 37.3509 129.3 35.482C127.56 33.8026 126.097 35.9899 124.77 37.0598C123.545 38.0484 122.427 39.1792 121.256 40.2355C116.658 44.3865 112.108 48.5984 107.415 52.6545C105.39 54.4015 103.379 55.9183 104.212 59.0942C104.368 59.6833 103.731 60.5364 103.345 61.2068C98.7948 69.0888 97.8401 77.0589 102.634 85.2253C105.539 90.1753 105.133 94.8678 102.201 99.8516C99.4495 104.498 97.1459 109.396 95.3211 114.478C92.5448 122.245 93.6553 129.653 99.3975 135.889C101.68 138.368 102.539 140.961 101.964 143.941C89.2132 148.017 74.404 146.487 62.6352 143.46C62.6408 139.871 61.9175 136.319 60.509 133.018C57.5702 126.138 57.9696 119.976 61.5382 113.692C62.1078 112.592 62.5725 111.44 62.9264 110.253C64.301 106.271 64.4296 102.262 62.6894 98.3755C61.3433 95.2816 59.8287 92.2637 58.1525 89.3355C55.7147 85.2117 54.4214 80.8914 55.1324 76.1108C55.6267 72.7792 56.1143 69.4274 56.9268 66.1703C58.3082 60.6177 56.9878 57.7128 51.8754 55.3699C49.528 54.278 47.2487 53.0456 45.0497 51.6794C40.242 48.7474 35.5155 45.6799 30.7145 42.7343C28.9404 41.6374 26.9631 40.6892 25.277 42.7884C24.092 44.2646 24.9926 46.3367 27.4981 48.0566C32.062 51.1715 36.6734 54.1984 41.2576 57.2727C43.0927 58.4983 44.9075 59.7442 46.8915 61.0849C41.928 65.1614 37.2151 68.9941 32.536 72.8742C30.9854 74.1675 29.1706 75.3592 28.1413 77.0114C27.3965 78.2032 27.0647 80.6817 27.7824 81.5146C29.0081 82.9366 29.0622 83.9522 28.7846 85.6247C28.5141 87.4015 28.6366 89.2161 29.1435 90.9404C29.9025 93.4089 30.8815 95.8044 32.0688 98.0979C34.8519 103.691 34.8248 109.081 31.5677 114.512C30.0712 116.997 28.7779 119.611 27.5319 122.238C24.4609 119.051 21.6253 115.645 19.0472 112.047C8.40925 96.9805 6.01893 75.3254 11.7341 55.5324C14.4108 46.3935 19.0873 37.9646 25.4246 30.8567C31.7619 23.7487 39.6013 18.1398 48.3745 14.4363C71.2011 4.94951 94.1022 3.27696 116.441 17.4835C120.524 20.0837 131.413 28.8867 133.126 30.2071L133.235 30.2883L133.323 30.39C142.037 39.633 152.019 56.5278 151.802 73.8967C151.727 81.3251 150.722 88.7147 148.809 95.893V95.8904Z" fill="black"/>
</svg>

<svg xmlns="http://www.w3.org/2000/svg" width="160" height="155" fill="none" viewBox="0 0 160 155"><path fill="#000" d="M87.56 82.479c-4.055-2.836-10.57-1.715-13.8 2.152a21.73 21.73 0 0 0-5.158 15.959c.36 4.865 4.707 9.002 9.81 9.708 5.48.758 9.635-1.507 11.411-6.698 1.005-2.938 1.364-6.094 1.806-8.176-.317-3.308-.186-5.655-.847-7.753-.598-1.908-1.664-4.108-3.221-5.192m-7.9 4.202c3.082-.24 4.991 2.083 5.407 5.543h-9.659c1.008-2.175 1.183-5.306 4.255-5.543zm1.072 17.997c-2.615.347-5.35-1.794-6.433-5.007 3.351-2.39 6.996-2.074 11.033-1.172-.64 3.045-1.23 5.731-4.598 6.179z"/><path fill="#000" d="M138.455 25.626a258 258 0 0 1-4.252-3.61c-3-2.58-6.108-5.254-9.352-7.53C100.054-2.97 74.289-3.065 48.273 6.191 24.722 14.568 9.594 31.321 3.31 55.975c-7.008 27.553-.866 51.856 18.263 72.252a68 68 0 0 0 3.27 3.257 79 79 0 0 0 8.262 6.704c7.367 5.234 15.127 9.067 21.851 12.046q.678.305 1.341.589c1.723.609 3.5 1.046 5.309 1.307 8.302 1.47 22.745 2.695 27.424 1.998 3.74-.553 7.45-1.302 11.112-2.242a93 93 0 0 0 7.266-2.167 80.4 80.4 0 0 0 17.877-8.606 71 71 0 0 0 5.817-4.205c12.601-10.117 21.323-24.276 25.697-42.281a86.3 86.3 0 0 0 2.336-20.26c.034-16.07-6.73-34.752-20.68-48.741M43.702 136.01a89.4 89.4 0 0 1-11.058-8.748q.236-.572.522-1.152 2.52-5.16 5.01-10.333c2.472-5.16 2.77-10.421.488-15.696-1.158-2.675-2.56-5.255-3.88-7.862-2.648-5.2-1.896-9.778 2.397-13.671 3.264-2.946 6.602-5.81 9.934-8.668 1.05-.9 2.207-1.666 3.961-2.966-.535 2.418-.9 3.928-1.212 5.451-1.462 7.192-1.192 14.18 3.02 20.497 4.53 6.806 5.262 13.482.894 20.829-3.4 5.722-3.541 12.027-.61 18.175a26.2 26.2 0 0 1 2.56 9.541c-5.37-1.812-9.622-3.803-12.026-5.397m65.054 5.14a12.9 12.9 0 0 0-3.42-7.963c-5.18-5.756-5.505-12.108-2.566-18.859 1.835-4.225 3.866-8.376 5.972-12.48 2.316-4.503 3.352-9.12 1.53-13.99a77 77 0 0 0-3.527-7.651c-3.034-6.02-1.693-11.607 1.191-17.132 6.575 3.622 12.839 7.062 19.076 10.489-.265.853-.366 1.293-.542 1.7-4.253 9.859-5.038 19.467 1.246 28.988 1.11 1.686 1.036 4.578.63 6.751a48.7 48.7 0 0 1-3.048 9.291 27.5 27.5 0 0 0-2.2 12.405 92 92 0 0 1-14.342 8.454zm40.053-45.26a64.83 64.83 0 0 1-17.938 30.335c.115-.386.237-.771.38-1.157 1.259-3.495 2.309-7.063 3.406-10.611 1.476-4.767 1.388-9.467-1.72-13.543-5.655-7.415-5.032-15.29-2.1-23.389.312-.86 1.362-1.47 2.106-2.153 1.064-.996 2.899-1.856 3.048-2.953.162-1.205-1.016-2.803-1.991-3.886-.772-.86-2.113-1.22-3.217-1.781-5.315-2.709-10.644-5.39-15.947-8.133a38 38 0 0 1-3.216-2.14c5.586-5.782 10.861-11.18 16.048-16.664 1.104-1.172 3.576-2.465 1.632-4.334-1.74-1.68-3.203.508-4.53 1.578-1.225.988-2.343 2.12-3.514 3.175-4.598 4.151-9.148 8.363-13.841 12.42-2.025 1.746-4.036 3.263-3.203 6.44.156.588-.481 1.441-.867 2.112-4.55 7.882-5.505 15.852-.711 24.018 2.905 4.95 2.499 9.643-.433 14.627a85 85 0 0 0-6.88 14.626c-2.776 7.767-1.666 15.175 4.076 21.411 2.283 2.479 3.142 5.072 2.567 8.052-12.75 4.076-27.56 2.546-39.329-.481a26.5 26.5 0 0 0-2.126-10.442c-2.939-6.88-2.54-13.042 1.03-19.326a20 20 0 0 0 1.387-3.439c1.375-3.982 1.504-7.991-.237-11.877a92 92 0 0 0-4.536-9.04c-2.438-4.124-3.732-8.445-3.02-13.225.494-3.332.981-6.684 1.794-9.94 1.381-5.553.06-8.458-5.052-10.801a64 64 0 0 1-6.825-3.69c-4.808-2.933-9.534-6-14.335-8.946-1.775-1.097-3.752-2.045-5.438.054-1.185 1.477-.284 3.549 2.221 5.269 4.564 3.114 9.175 6.141 13.76 9.216 1.835 1.225 3.65 2.471 5.633 3.812-4.963 4.076-9.676 7.91-14.355 11.79-1.55 1.293-3.365 2.484-4.395 4.136-.744 1.192-1.076 3.67-.359 4.504 1.226 1.422 1.28 2.437 1.003 4.11a12.3 12.3 0 0 0 .358 5.315 43 43 0 0 0 2.926 7.158c2.783 5.593 2.756 10.983-.501 16.414-1.497 2.485-2.79 5.099-4.036 7.726a91.5 91.5 0 0 1-8.485-10.191C8.41 96.981 6.02 75.325 11.734 55.532a64.2 64.2 0 0 1 36.64-41.096c22.827-9.486 45.728-11.159 68.067 3.047 4.083 2.6 14.972 11.404 16.685 12.724l.109.081.088.102c8.714 9.243 18.696 26.138 18.479 43.507a89 89 0 0 1-2.993 21.996z"/></svg>
